material/.icons/material/skip-previous-circle-outline.svg

<?xml version="1.0" encoding="UTF-8"?><!DOCTYPE svg PUBLIC "-//W3C//DTD SVG 1.1//EN" "http://www.w3.org/Graphics/SVG/1.1/DTD/svg11.dtd"><svg xmlns="http://www.w3.org/2000/svg" xmlns:xlink="http://www.w3.org/1999/xlink" version="1.1" id="mdi-skip-previous-circle-outline" width="24" height="24" viewBox="0 0 24 24"><path d="M12,2A10,10 0 0,1 22,12A10,10 0 0,1 12,22A10,10 0 0,1 2,12A10,10 0 0,1 12,2M12,4C7.59,4 4,7.59 4,12C4,16.41 7.59,20 12,20C16.41,20 20,16.41 20,12C20,7.59 16.41,4 12,4M16,8V16L11,12M10,8V16H8V8" /></svg>

<svg xmlns="http://www.w3.org/2000/svg" viewBox="0 0 24 24"><path d="M12 2a10 10 0 0110 10 10 10 0 01-10 10A10 10 0 012 12 10 10 0 0112 2m0 2c-4.41 0-8 3.59-8 8s3.59 8 8 8 8-3.59 8-8-3.59-8-8-8m4 4v8l-5-4m-1-4v8H8V8"/></svg>
